X:1
T:Sprezzami fuggimi
T:Benedetto Ferrari
T:Source : Musiche Varie a voce sola---Libro primo---Venetia---B.Magni---1633. Editor : André Vierendeels (31/12/16).
T:Notes : Original clefs C4, F4 Figures in BC are notated in original print 
T:Sprezzami fuggimi
T:©
T:©
C:Benedetto Ferrari
Z:©
%%score 1 2
L:1/8
Q:1/4=120
M:6/4
K:C
V:1 treble-8 nm="Tenor" snm="T"
V:2 bass nm="MusicXML Part"
V:1
 c3 B A2 d3 c B2 | z edcBA ^G6 | E3 ^F ^G2 F3 G A2 | z ^GABcd B6 :: z2 e2 e2 f2 c2 d2 | %5
w: Sprez- za- mi fug- gi- mi|cru- del e non m'a- mar|l'a- ni- ma mi se- ra|far à qual sco- glio'in mar,|con- tri col- pi d'a-|
w: To- gli- mi su- ra- mi|de tuoi be- glioc- chi rai,|ce- la- mi ve- la- mi|quel sen che tan- to'a- mai||
w: Te- ne- ra pla- ci- da|tut- t'a- mor e pie- à,|lu- ci- da flo- ri- da|in- grem- bo'al- trui ti sta,||
w: per- fi- da ri- gi- da|e pie- na di fu- ror|ser- ba- vi se- gui- ra|fin al- la mor- te'an- cor||
 e2 B2 c2 d2 A2 _B2 | c2 G2 A2 _B2 F2 G2 | A3 _B A2 A2 G3 F | F6 z6 | z2 d2 d2 e2 B2 c2 | %10
w: mor di for- tu- na'e d'ho-|nor ha- vra'l se- no fe-|ri- to c- stan- * te'il|cor,|con- tr'il col- pi d'a-|
w: |||||
w: |||||
w: |||||
 d2 A2 B2 c2 G2 A2 | B2 ^F2 G2 A2 E2 F2 | G2 G2 A2 B2 ^c2 d2 | Td4 ^c2 d6 |[M:4/4] z A A4 ^G2 | %15
w: mor di for- tu- na'e d'ho-|,or ha- vr'al se- no'ha- vra'l|se- no fe- ri- to co-|stan- te'il cor,|co- stan- te'il|
w: |||||
w: |||||
w: |||||
 A8 |] %16
w: cor.|
w: |
w: |
w: |
V:2
"^BC" A,3 G, F,2 D,3 E,/^F,/ G,2 | C,2 D,4 E,6 | C,3 D, E,2 D,3 E, F,2 | E,2 D,4 E,6 :: %4
 z2 C2 C2 D2 A,2 B,2 |"^b" C2 G,2 A,2 _B,2 F,2 G,2 |"^b" A,2 E,2 F,2 G,2 D,2 E,2 | %7
"^4 3" F,2 A,,2 _B,,2 C,6 | F,2 F,,4 F,4 E,2 | D,6 C,6 |"^6""^#6" B,,6 A,,6 | G,,6 D,6 | %12
 E,4 ^F,2 G,6 | A,2 A,,4 D,2 D,,4 |[M:4/4]"^7""^3" D,4 E,4 | A,,8 |] %16

